X:6471
T:the 15 Regt. March
O:england
N:P1(?) 1/2
R:March
M:C
A:Westmorland
K:G
GB|\
d2dd d2 (3edc|B2BB B2 GB|\
A2ce dcBA|G2GG G2gd|\
e2ee e2ge|d2dd d2Bd|
cAcc BGBB|A2AAA2::\
dB|A2AA A2dA|B2BB B2B/2c/2d|
e2gg g2e2|d2gg g2e/2d/2c|\
B/2c/2d e/2f/2g d>cB>A|G>AB>c B>cdd|\
d2e/2d/2c B2A2|G2GGG:|


